projects/samara/images/logo.svg

<svg width="160" height="27" viewBox="0 0 160 27" fill="none" xmlns="http://www.w3.org/2000/svg">
<path fill-rule="evenodd" clip-rule="evenodd" d="M82.2609 1.8562L78.7826 3.69428L82.5217 3.79469C84.5781 3.84984 87.9437 3.84984 90 3.79469L93.7391 3.69428L90.1802 1.83817C88.223 0.817132 86.423 -0.00981131 86.1802 8.79597e-05C85.9377 0.00998723 84.1739 0.845415 82.2609 1.8562ZM78.9565 8.82069V13.0632H82.2609H85.5652V11.2955V9.52778H83.8261C82.512 9.52778 82.087 9.39803 82.087 8.99747C82.087 8.55341 82.8212 8.46715 86.6087 8.46715C90.3962 8.46715 91.1304 8.55341 91.1304 8.99747C91.1304 9.40475 90.6859 9.52778 89.2174 9.52778H87.3044V11.3089V13.0898L90.5217 12.9883L93.7391 12.8865L93.8372 8.73231L93.935 4.57815H86.4459H78.9565V8.82069ZM56.3694 6.9918C55.0845 7.69218 53.913 9.54794 53.913 10.8829C53.913 13.2089 55.8772 15.0512 59.0671 15.7173C60.3652 15.9885 60.8108 16.7026 60.1701 17.4872C59.5339 18.2667 57.761 18.1182 56.087 17.1453L54.6087 16.2862V18.201C54.6087 20.0005 54.6769 20.1529 55.7391 20.726C57.4094 21.6272 60.881 21.5816 62.1471 20.6415C63.5496 19.6006 64.4716 17.5564 64.2007 16.0889C63.855 14.2162 62.7969 13.1569 60.5937 12.4785C58.0762 11.7028 57.599 11.3627 58.1252 10.7182C58.6897 10.027 60.8518 10.1217 62.3614 10.9038L63.6522 11.5727V9.52814V7.48323L62.2539 6.91473C60.392 6.15744 57.8386 6.19102 56.3694 6.9918ZM67.5722 6.85074C65.3819 7.85587 64.4271 10.826 65.5711 13.0749C66.1722 14.2565 67.345 14.9621 69.7162 15.5692C71.5687 16.0433 72.0964 16.8027 71.0998 17.5607C70.2212 18.2292 68.0153 17.9344 66.7433 16.9788C66.2066 16.5754 65.6828 16.2451 65.5791 16.2451C65.4758 16.2451 65.3913 17.0159 65.3913 17.9581C65.3913 19.9832 65.9061 20.5853 68.1593 21.1955C72.0779 22.2565 75.1304 20.2409 75.1304 16.593C75.1304 14.1016 74.2557 13.2474 70.5642 12.1331C69.5527 11.828 68.8696 11.4161 68.8696 11.1117C68.8696 9.99553 72.2508 10.0443 73.9638 11.1852L74.7826 11.7304V9.75335C74.7826 8.00506 74.6758 7.70526 73.8616 7.16292C72.6362 6.34694 69.0574 6.16946 67.5722 6.85074ZM114.435 7.11554C112.235 8.26952 111.304 10.2214 111.304 13.6798C111.304 17.8591 112.763 20.3724 115.669 21.1994C118.785 22.0864 122.007 20.8147 123.304 18.1851C123.846 17.088 124 16.0698 124 13.5936C124 8.5566 122.561 6.72912 118.379 6.45194C116.378 6.31936 115.751 6.42507 114.435 7.11554ZM141.362 6.82917C140.772 7.10105 139.935 7.7795 139.502 8.33704C138.843 9.18449 138.739 9.66567 138.869 11.2669C139.054 13.5635 139.873 14.4463 142.674 15.3673C145.11 16.1684 145.631 16.6581 144.87 17.432C144.06 18.2551 142.623 18.1529 140.747 17.1389L139.13 16.2649V18.1235C139.13 19.8015 139.229 20.0408 140.145 20.5909C143.907 22.8494 148.864 20.7408 148.868 16.8805C148.871 14.3095 147.801 13.1891 144.351 12.1476C142.621 11.6254 142.088 10.867 143.159 10.4495C144.146 10.0645 145.537 10.2374 147.043 10.9324L148.522 11.6144V9.69537C148.522 8.01001 148.41 7.70172 147.601 7.16292C146.397 6.36143 142.796 6.16875 141.362 6.82917ZM0 13.9471V21.1948H1.73913H3.47826V18.5432V15.8916H6.6087H9.73913V14.1239V12.3561H6.6087H3.47826V11.2955V10.2349H6.6087H9.73913V8.46715V6.69942H4.86957H0V13.9471ZM11.1304 13.9471V21.1948H13.0435H14.9565V13.9471V6.69942H13.0435H11.1304V13.9471ZM16.3478 8.46715V10.2349H18.2609H20.1739V15.7332V21.2319L22 21.1248L23.8261 21.018L23.9221 15.6264L24.0181 10.2349H25.7482H27.4783V8.46715V6.69942H21.913H16.3478V8.46715ZM28.8696 13.933V21.1948H30.7826H32.6957L32.7113 16.5103L32.7266 11.8258L34.6772 16.5252L36.6275 21.2245L38.9224 21.1212L41.2174 21.018L41.3117 13.8587L41.4056 6.69942H39.4856H37.5652L37.5468 10.8536L37.528 15.0077L36.0223 10.942L34.5162 6.87619L31.6929 6.77367L28.8696 6.67078V13.933ZM43.1304 13.9471V21.1948H48H52.8696V19.2503V17.3058H49.913C46.9913 17.3058 46.9565 17.2955 46.9565 16.4219C46.9565 15.5483 46.9913 15.5381 49.913 15.5381H52.8696V13.7703V12.0026H49.913C46.9913 12.0026 46.9565 11.9923 46.9565 11.1187C46.9565 10.2451 46.9913 10.2349 49.913 10.2349H52.8696V8.46715V6.69942H48H43.1304V13.9471ZM98.087 13.9471V21.1948H99.8261H101.565V18.3664V15.5381H103.652H105.739V18.3664V21.1948H107.652H109.565V13.9471V6.69942H107.652H105.739V9.35101V12.0026H103.652H101.565V9.35101V6.69942H99.8261H98.087V13.9471ZM125.914 12.2678C125.915 17.1633 125.998 17.9726 126.593 18.966C127.655 20.7355 128.873 21.3592 131.28 21.3659C133.976 21.3733 135.445 20.7327 136.432 19.1202C137.143 17.9574 137.229 17.3107 137.341 12.2678L137.464 6.69942H135.515H133.565V11.4723C133.565 15.7739 133.496 16.3152 132.87 16.9522C132.051 17.7845 131.176 17.8531 130.24 17.158C129.638 16.7108 129.552 16.1165 129.445 11.678L129.325 6.69942H127.619H125.913L125.914 12.2678ZM150.261 13.9471V21.1948H155.13H160V19.2503V17.3058H156.845C153.773 17.3058 153.694 17.2849 153.802 16.5103C153.906 15.764 154.101 15.7085 156.957 15.6127L160 15.5105V13.7565V12.0026H156.87C153.762 12.0026 153.739 11.9959 153.739 11.1187C153.739 10.2416 153.762 10.2349 156.87 10.2349H160V8.46715V6.69942H155.13H150.261V13.9471ZM119.3 10.8674C120.137 11.5564 120.61 14.0747 120.208 15.7028C119.655 17.9432 117.495 18.6807 115.984 17.1449C115.265 16.4138 115.13 15.939 115.13 14.1239C115.13 12.3088 115.265 11.834 115.984 11.1028C116.993 10.0775 118.233 9.98952 119.3 10.8674ZM78.9565 18.0129V22.2554H86.4348H93.913V18.0129V13.7703H90.6087H87.3044V15.7148V17.6593H89.2174C90.6859 17.6593 91.1304 17.7824 91.1304 18.1896C91.1304 18.6337 90.3962 18.72 86.6087 18.72C82.8212 18.72 82.087 18.6337 82.087 18.1896C82.087 17.7891 82.512 17.6593 83.8261 17.6593H85.5652V15.7148V13.7703H82.2609H78.9565V18.0129ZM88.2609 19.6869C87.352 19.7597 85.8654 19.7597 84.9565 19.6869C84.0477 19.6141 84.7913 19.5543 86.6087 19.5543C88.4261 19.5543 89.1697 19.6141 88.2609 19.6869ZM79.0779 23.2277C79.167 23.3733 80.8198 24.2819 82.7506 25.2464L86.2609 27L89.7711 25.2464C91.7019 24.2819 93.3548 23.3733 93.4438 23.2277C93.5332 23.082 90.3009 22.9625 86.2609 22.9625C82.2209 22.9625 78.9885 23.082 79.0779 23.2277Z" fill="white"/>
</svg>

<svg width="160" height="27" fill="none" xmlns="http://www.w3.org/2000/svg"><path fill-rule="evenodd" clip-rule="evenodd" d="M82.26 1.856l-3.477 1.838 3.739.1c2.056.056 5.422.056 7.478 0l3.74-.1-3.56-1.856C88.223.818 86.423-.01 86.18 0c-.242.01-2.006.845-3.92 1.856zm-3.303 6.965v4.242h6.608V9.528h-1.739c-1.314 0-1.739-.13-1.739-.53 0-.445.734-.53 4.522-.53 3.787 0 4.521.085 4.521.53 0 .407-.444.53-1.913.53h-1.913v3.562l3.218-.102 3.217-.101.098-4.155.098-4.154H78.957v4.243zM56.369 6.99c-1.285.701-2.456 2.557-2.456 3.892 0 2.326 1.964 4.168 5.154 4.834 1.298.271 1.744.986 1.103 1.77-.636.78-2.409.631-4.083-.342l-1.478-.859V18.2c0 1.8.068 1.952 1.13 2.525 1.67.901 5.142.856 6.408-.084 1.403-1.041 2.325-3.086 2.054-4.553-.346-1.873-1.404-2.932-3.607-3.61-2.518-.776-2.995-1.116-2.469-1.76.565-.692 2.727-.597 4.236.185l1.291.669v-4.09l-1.398-.568c-1.862-.758-4.415-.724-5.885.077zm11.203-.14c-2.19 1.005-3.145 3.975-2 6.224.6 1.182 1.773 1.887 4.144 2.494 1.853.474 2.38 1.234 1.384 1.992-.879.668-3.085.373-4.357-.582-.536-.404-1.06-.734-1.164-.734-.103 0-.188.77-.188 1.713 0 2.025.515 2.627 2.768 3.238 3.919 1.06 6.971-.955 6.971-4.603 0-2.491-.874-3.346-4.566-4.46-1.011-.305-1.694-.717-1.694-1.021 0-1.116 3.38-1.068 5.094.073l.819.545V9.753c0-1.748-.107-2.048-.921-2.59-1.226-.816-4.805-.994-6.29-.312zm46.863.265c-2.2 1.154-3.131 3.105-3.131 6.564 0 4.18 1.459 6.692 4.365 7.52 3.116.886 6.338-.385 7.635-3.015.542-1.097.696-2.115.696-4.591 0-5.037-1.439-6.865-5.621-7.142-2.001-.133-2.628-.027-3.944.664zm26.927-.287c-.59.272-1.427.95-1.86 1.508-.659.847-.763 1.329-.633 2.93.185 2.296 1.004 3.18 3.805 4.1 2.436.801 2.957 1.291 2.196 2.065-.81.823-2.247.72-4.123-.293l-1.617-.874v1.858c0 1.678.099 1.918 1.015 2.468 3.762 2.258 8.719.15 8.723-3.71.003-2.572-1.067-3.692-4.517-4.733-1.73-.523-2.263-1.281-1.192-1.698.987-.385 2.378-.213 3.884.482l1.479.682V9.695c0-1.685-.112-1.993-.921-2.532-1.204-.802-4.805-.994-6.239-.334zM0 13.947v7.248h3.478v-5.303H9.74v-3.536H3.48v-2.121h6.26V6.699H0v7.248zm11.13 0v7.248h3.827V6.699H11.13v7.248zm5.218-5.48v1.768h3.826v10.997L22 21.125l1.826-.107.096-5.392.096-5.391h3.46V6.699h-11.13v1.768zm12.522 5.466v7.262h3.826l.015-4.685.016-4.684 1.95 4.7 1.95 4.698 2.295-.103 2.295-.103.095-7.16.094-7.159h-3.84l-.02 4.155-.018 4.154-1.506-4.066-1.506-4.066-2.823-.102-2.823-.103v7.262zm14.26.014v7.248h9.74v-3.889h-2.957c-2.922 0-2.956-.01-2.956-.884s.034-.884 2.956-.884h2.957v-3.535h-2.957c-2.922 0-2.956-.01-2.956-.884s.034-.884 2.956-.884h2.957V6.699h-9.74v7.248zm54.957 0v7.248h3.478v-5.657h4.174v5.657h3.826V6.699h-3.826v5.304h-4.174V6.699h-3.478v7.248zm27.827-1.68c.001 4.896.084 5.706.679 6.699 1.062 1.77 2.28 2.393 4.687 2.4 2.696.007 4.165-.633 5.152-2.246.711-1.163.797-1.81.909-6.852l.123-5.569h-3.899v4.773c0 4.302-.069 4.843-.695 5.48-.819.832-1.694.901-2.63.206-.602-.447-.688-1.042-.795-5.48l-.12-4.979h-3.412l.001 5.569zm24.347 1.68v7.248H160v-3.889h-3.155c-3.072 0-3.151-.021-3.043-.796.104-.746.299-.802 3.155-.897L160 15.51v-3.508h-3.13c-3.108 0-3.131-.007-3.131-.884s.023-.884 3.131-.884H160V6.699h-9.739v7.248zm-30.961-3.08c.837.69 1.31 3.208.908 4.836-.553 2.24-2.713 2.978-4.224 1.442-.719-.731-.854-1.206-.854-3.021s.135-2.29.854-3.021c1.009-1.025 2.249-1.113 3.316-.236zm-40.343 7.146v4.242h14.956V13.77h-6.609v3.89h1.913c1.469 0 1.913.123 1.913.53 0 .445-.734.531-4.521.531-3.788 0-4.522-.086-4.522-.53 0-.4.425-.53 1.74-.53h1.738v-3.89h-6.608v4.243zm9.304 1.674a24.95 24.95 0 01-3.304 0c-.91-.073-.166-.133 1.652-.133 1.817 0 2.56.06 1.652.133zm-9.183 3.54c.089.146 1.742 1.055 3.673 2.02L86.26 27l3.51-1.754c1.93-.964 3.584-1.873 3.673-2.018.09-.146-3.143-.266-7.183-.266s-7.272.12-7.183.266z" fill="#fff"/></svg>
